actions/22x22-light/draw-polygon-star.svg

<svg viewBox="0 0 22 22" xmlns="http://www.w3.org/2000/svg"><path d="m9 3-7 7.15625 3.875 6.84375h3.125l-.3125 2 4.3125-2.40625 4.3125 2.40625-.8125-5.0625 3.5-3.59375-4.84375-.75-2.15625-4.59375-.65625 1.40625zm0 1.25 2.9375 3-1.09375 2.34375-4.84375.75 3.5 3.59375-.34375 2.1875h-2.78125l-3.3125-5.8125z" fill="#4d4d4d"/></svg>

<svg xmlns="http://www.w3.org/2000/svg" viewBox="0 0 22 22">
  <defs id="defs3051">
    <style type="text/css" id="current-color-scheme">
      .ColorScheme-Text {
        color:#4d4d4d
      }
      </style>
  </defs>
 <path 
     style="fill:currentColor;fill-opacity:1;stroke:none"      
        d="M 9 3 L 2 10.15625 L 5.875 17 L 9 17 L 8.6875 19 L 13 16.59375 L 17.3125 19 L 16.5 13.9375 L 20 10.34375 L 15.15625 9.59375 L 13 5 L 12.34375 6.40625 L 9 3 z M 9 4.25 L 11.9375 7.25 L 10.84375 9.59375 L 6 10.34375 L 9.5 13.9375 L 9.15625 16.125 L 6.375 16.125 L 3.0625 10.3125 L 9 4.25 z "
	 class="ColorScheme-Text"
     />
</svg>
